X:1
T:Golden Sheaves, 87.87 D
T:Golden Sheaves, 87.87 D
T:Arthur Seymour Sullivan, 1874
T:Public Domain Courtesy of the Cyber Hymnal™
C:Arthur Seymour Sullivan, 1874
Z:Public Domain
Z:Courtesy of the Cyber Hymnal™
%%score ( 1 2 ) ( 3 4 )
L:1/8
Q:1/4=117
M:none
K:G
V:1 treble 
V:2 treble 
V:3 bass 
V:4 bass 
V:1
 D2 | [GB]2 [Fd]2 [Gd]2 [Ac]2 | [GB]2 [FA]2 G2 [DG]2 | [EA]2 [DB]2 [Cc]2 [CE]2 x | %4
 [CF]4 [B,G]2 D2 | [GB]2 [Fd]2 [Gd]2 [Ac]2 | [GB]2 [FA]2 G2 [GB]2 | [GB]2 [GA]2 [GB]2 [G^c]2 | %8
 [Ge]4 [Fd]2 [FA]2 | [FA]3 [FA] [Fd]2 [FB]2 | [EA]2 [E^G]2 [EB]2 E2 | [Ec]2 [Ec]2 [Gd]2 (cd) | %12
 [Ge]4 [Ge]2 (cd) | [Ge]2 [Ae]2 [Ad]2 G2 | [Gc]2 [Fc]2 B2 G2 | [EA]2 [DB]2 c2 E2 x | [DF]4 [DG]2 || %17
V:2
 D2 | x8 | x4 G2 x2 | x9 | x6 D2 | x8 | x8 | x8 | x8 | x8 | x8 | x6 G2 | x6 E2 | x6 G2 | x4 B2 G2 | %15
 x4 c2 E2 x | x6 || %17
V:3
 D,2 | [G,D]2 [A,D]2 [B,D]2 [F,D]2 | [G,D]2 [D,C]2 [E,B,]2 [B,,G,]2 | G,3 z G, [A,,G,]2 [A,,A,]2 | %4
 [D,A,]4 [G,,G,]2 D,2 | [G,D]2 [CD]2 [B,D]2 [F,D]2 | [G,D]2 [D,C]2 [E,B,]2 [E,D]2 | %7
 [A,,^C]2 [A,,C]2 [A,D]2 [A,E]2 | [A,^C]4 [D,D]2 [D,D]2 | [D,D]3 [D,D] [B,,D]2 [D,D]2 | %10
 [E,B,]3 [F,B,] ^G,2 E,2 | A,2 A,2 G,2 (A,B,) | C4 [C,C]2 [C,C]2 | C2 [F,C]2 B,2 [B,E]2 | %14
 [A,E]2 [D,D]2 [E,G,]2 [B,,G,]2 | G,3 z E, [A,,E,]2 [A,,C]2 | [D,C]4 [G,,B,]2 || %17
V:4
 D,2 | x8 | x8 | C,2 B,,2 x5 | x6 D,2 | x8 | x8 | x8 | x8 | x8 | x4 ^G,2 E,2 | A,2 A,2 G,2 G,2 | %12
 C4 x4 | C2 B,2 x4 | x8 | C,2 B,,2 x5 | x6 || %17

